X:1432
T:Ihr kleinen V\"ogelein
C:Anton Ernst Kopp
O:Germany
N:First published 1717
Z:Transcribed by Frank Nordberg - http://www.musicaviva.com
F:http://abc.musicaviva.com/tunes/kopp-anton-ernst/kopp-ihr-kleinen-vogelein.abc
M:3/4
L:1/4
K:C
Gcd|B>cd|e(f/e/) (f/g/)|e>dc|
w:Ihr klei-nen V\"o-ge-lein, ihr Wald--er--g\"ot-zer lein,
de(d/e/)|c>BA|Bd(G/A/)|^F>GG|
w:ihr s\"u-\ssen_ S\"an-ger lein, stimmt mit mir_ \"u-ber-ein:
G c/d/ e/e/|AA z|Ad/e/ f/f/|BB z|
